img/logo-app.svg

<svg width="229" height="229" viewBox="0 0 229 229" fill="none" xmlns="http://www.w3.org/2000/svg">
<path d="M229 49.9148V179.085C229 206.637 206.637 229 179.085 229H49.9148C22.3633 229 0 206.637 0 179.085V50.0938C0 22.3633 22.3633 0 49.9148 0H178.906C206.637 0 229 22.3633 229 49.9148Z" fill="url(#paint0_linear)"/>
<path d="M142.497 122.455C141.388 124.929 139.91 127.051 138.246 129.172L143.421 134.121C146.562 132.884 150.443 133.768 152.476 136.949C153.954 139.247 153.954 142.253 152.476 144.374C149.889 148.439 144.16 148.793 140.834 145.611C138.616 143.49 138.062 140.485 139.17 137.833L133.996 132.884C129.561 136.419 124.017 138.894 117.734 139.424V148.086C121.799 149.5 124.387 153.566 123.463 158.162C122.723 161.52 119.952 164.172 116.44 164.879C110.527 166.116 105.168 161.697 105.168 156.217C105.168 152.505 107.57 149.323 111.081 147.909V139.247C104.983 138.54 99.439 136.242 94.8191 132.707L89.6448 137.657C90.9384 140.662 90.0144 144.374 86.6881 146.318C84.2857 147.732 81.1442 147.732 78.9266 146.318C74.6763 143.843 74.3067 138.364 77.633 135.182C79.8506 133.061 82.9921 132.53 85.7641 133.591L90.9384 128.641C87.2425 124.399 84.6553 119.096 84.1009 113.086H75.0459C73.5675 116.975 69.3172 119.45 64.5125 118.566C61.0013 117.859 58.2294 115.207 57.4902 111.848C56.1966 106.192 60.8165 101.066 66.5452 101.066C70.4259 101.066 73.7523 103.364 75.2307 106.722H84.2857C85.0249 100.889 87.4273 95.5859 91.1232 91.1667L85.9489 86.2172C82.8073 87.4545 78.9266 86.5707 76.8938 83.3889C75.4155 81.0909 75.4155 78.0859 76.8938 75.9646C79.481 71.899 85.2097 71.5455 88.536 74.7273C90.7536 76.8485 91.308 79.8535 90.1992 82.5051L95.3735 87.4545C99.8087 83.9192 105.353 81.4444 111.636 80.9141V72.2525C107.57 70.8384 104.983 66.7727 105.907 62.1768C106.646 58.8182 109.418 56.1667 112.929 55.4596C118.843 54.2222 124.202 58.6414 124.202 64.1212C124.202 67.8333 121.799 71.0152 118.288 72.4293V81.0909C124.387 81.798 129.931 84.096 134.55 87.6313L139.725 82.6818C138.431 79.6768 139.355 75.9646 142.682 74.0202C145.084 72.6061 148.225 72.6061 150.443 74.0202C154.693 76.4949 155.063 81.9747 151.737 85.1566C149.519 87.2778 146.377 87.8081 143.605 86.7475L138.431 91.697C140.279 93.8182 141.758 96.1162 142.866 98.5909C143.605 100.359 145.453 101.419 147.301 101.419H180.01C182.782 101.419 185 99.298 185 96.6465V61.6465C185 52.9848 181.304 50.1566 173.912 47.1515C163.933 43.0859 131.594 31.596 121.615 28.2374C119.212 27.5303 116.81 27 114.408 27C112.005 27 109.603 27.5303 107.385 28.2374C97.4063 31.4192 65.0668 43.2626 55.0878 47.1515C47.8807 49.9798 44 52.9848 44 61.6465V132.177C44 162.581 60.6317 173.717 108.679 200.409C110.896 201.646 112.929 202 114.408 202C115.701 202 117.919 201.47 120.136 200.409C169.107 175.131 184.815 162.581 184.815 132.177V124.399C184.815 121.747 182.598 119.626 179.826 119.626H146.747C144.899 119.803 143.236 120.864 142.497 122.455Z" fill="white"/>
<defs>
<linearGradient id="paint0_linear" x1="34.8501" y1="194.112" x2="265.21" y2="-36.1062" gradientUnits="userSpaceOnUse">
<stop stop-color="#C9005D"/>
<stop offset="0.00040942" stop-color="#C9005D"/>
<stop offset="0.2482" stop-color="#C9005D"/>
<stop offset="0.9831" stop-color="#315BBC"/>
<stop offset="1" stop-color="#315BBC"/>
</linearGradient>
</defs>
</svg>

<svg width="229" height="229" fill="none" xmlns="http://www.w3.org/2000/svg">
  <path d="M229 49.915v129.17C229 206.637 206.637 229 179.085 229H49.915C22.363 229 0 206.637 0 179.085V50.094C0 22.364 22.363 0 49.915 0h128.991C206.637 0 229 22.363 229 49.915z" fill="url(#paint0_linear)"/>
  <path d="M142.497 122.455c-1.109 2.474-2.587 4.596-4.251 6.717l5.175 4.949c3.141-1.237 7.022-.353 9.055 2.828 1.478 2.298 1.478 5.304 0 7.425-2.587 4.065-8.316 4.419-11.642 1.237-2.218-2.121-2.772-5.126-1.664-7.778l-5.174-4.949c-4.435 3.535-9.979 6.01-16.262 6.54v8.662c4.065 1.414 6.653 5.48 5.729 10.076-.74 3.358-3.511 6.01-7.023 6.717-5.913 1.237-11.272-3.182-11.272-8.662 0-3.712 2.402-6.894 5.913-8.308v-8.662c-6.098-.707-11.642-3.005-16.262-6.54l-5.174 4.95c1.293 3.005.37 6.717-2.957 8.661-2.402 1.414-5.544 1.414-7.761 0-4.25-2.475-4.62-7.954-1.294-11.136 2.218-2.121 5.36-2.652 8.131-1.591l5.174-4.95c-3.695-4.242-6.283-9.545-6.837-15.555h-9.055c-1.479 3.889-5.729 6.364-10.534 5.48-3.51-.707-6.283-3.359-7.022-6.718-1.293-5.656 3.326-10.782 9.055-10.782a9.454 9.454 0 018.686 5.656h9.055c.739-5.833 3.141-11.136 6.837-15.555l-5.174-4.95c-3.142 1.237-7.022.354-9.055-2.828-1.479-2.298-1.479-5.303 0-7.424 2.587-4.066 8.316-4.42 11.642-1.238 2.218 2.121 2.772 5.126 1.663 7.778l5.175 4.95c4.435-3.536 9.979-6.01 16.262-6.54v-8.663c-4.066-1.414-6.653-5.48-5.729-10.075.739-3.359 3.511-6.01 7.022-6.717 5.914-1.238 11.273 3.181 11.273 8.661 0 3.712-2.403 6.894-5.914 8.308v8.662c6.099.707 11.643 3.005 16.262 6.54l5.175-4.95c-1.294-3.004-.37-6.716 2.957-8.66 2.402-1.415 5.543-1.415 7.761 0 4.25 2.474 4.62 7.954 1.294 11.136-2.218 2.12-5.36 2.651-8.132 1.59l-5.174 4.95c1.848 2.121 3.327 4.42 4.435 6.894.739 1.768 2.587 2.828 4.435 2.828h32.709c2.772 0 4.99-2.121 4.99-4.772v-35c0-8.662-3.696-11.49-11.088-14.495-9.979-4.066-42.318-15.556-52.297-18.915-2.403-.707-4.805-1.237-7.207-1.237-2.403 0-4.805.53-7.023 1.237-9.979 3.182-42.318 15.026-52.297 18.915C47.88 49.98 44 52.984 44 61.646v70.53c0 30.404 16.632 41.54 64.679 68.232 2.217 1.237 4.25 1.591 5.729 1.591 1.293 0 3.511-.53 5.728-1.591 48.971-25.278 64.679-37.828 64.679-68.232v-7.778c0-2.652-2.217-4.773-4.989-4.773h-33.079c-1.848.177-3.511 1.238-4.25 2.829z" fill="#fff"/>
  <defs>
    <linearGradient id="paint0_linear" x1="34.85" y1="194.112" x2="265.21" y2="-36.106" gradientUnits="userSpaceOnUse">
      <stop stop-color="#C9005D"/>
      <stop offset="0" stop-color="#C9005D"/>
      <stop offset=".248" stop-color="#C9005D"/>
      <stop offset=".983" stop-color="#315BBC"/>
      <stop offset="1" stop-color="#315BBC"/>
    </linearGradient>
  </defs>
</svg>
